packages/elements/bolt-icon/src/svgs/share.svg

<svg enable-background="new 0 0 32 32" viewBox="0 0 32 32" xmlns="http://www.w3.org/2000/svg"><path d="m24.5 19.2c-2 0-3.9 1-5.1 2.6l-5.7-3.3c.1-.5.2-.9.2-1.4 0-.6-.1-1.3-.3-1.9l6.8-4c1.1 1 2.6 1.6 4.1 1.6 3.5 0 6.4-2.9 6.4-6.4s-2.8-6.4-6.4-6.4-6.4 2.9-6.4 6.4c0 .4 0 .8.1 1.2l-7.2 4.1c-2.9-2-6.9-1.1-8.9 1.8s-1.1 6.9 1.8 8.9c1 .7 2.3 1.1 3.5 1.1 1.4 0 2.8-.5 4-1.4l6.7 3.9c.2 3.5 3.2 6.2 6.8 6s6.2-3.2 6-6.8c-.2-3.3-3-6-6.4-6zm0-14.9c1.2 0 2.1 1 2.1 2.1s-1 2.1-2.1 2.1c-1.2 0-2.1-1-2.1-2.1s1-2.1 2.1-2.1zm-17 14.9c-1.2 0-2.1-1-2.1-2.1s1-2.1 2.1-2.1 2.1 1 2.1 2.1-1 2.1-2.1 2.1zm17 8.5c-1.2 0-2.1-1-2.1-2.1 0-1.2 1-2.1 2.1-2.1 1.2 0 2.1 1 2.1 2.1.1 1.2-.9 2.1-2.1 2.1z" fill="#151619"/></svg>

<?xml version="1.0" encoding="utf-8"?>
<!-- Generator: Adobe Illustrator 25.2.0, SVG Export Plug-In . SVG Version: 6.00 Build 0)  -->
<svg version="1.1" id="Layer_1" xmlns="http://www.w3.org/2000/svg" xmlns:xlink="http://www.w3.org/1999/xlink" x="0px" y="0px"
	 viewBox="0 0 32 32" style="enable-background:new 0 0 32 32;" xml:space="preserve">
<style type="text/css">
	.st0{fill:#151619;}
</style>
<path class="st0" d="M24.5,19.2c-2,0-3.9,1-5.1,2.6l-5.7-3.3c0.1-0.5,0.2-0.9,0.2-1.4c0-0.6-0.1-1.3-0.3-1.9l6.8-4
	c1.1,1,2.6,1.6,4.1,1.6c3.5,0,6.4-2.9,6.4-6.4S28.1,0,24.5,0s-6.4,2.9-6.4,6.4c0,0.4,0,0.8,0.1,1.2L11,11.7c-2.9-2-6.9-1.1-8.9,1.8
	S1,20.4,3.9,22.4c1,0.7,2.3,1.1,3.5,1.1c1.4,0,2.8-0.5,4-1.4l6.7,3.9c0.2,3.5,3.2,6.2,6.8,6s6.2-3.2,6-6.8
	C30.7,21.9,27.9,19.2,24.5,19.2z M24.5,4.3c1.2,0,2.1,1,2.1,2.1s-1,2.1-2.1,2.1c-1.2,0-2.1-1-2.1-2.1S23.4,4.3,24.5,4.3z M7.5,19.2
	c-1.2,0-2.1-1-2.1-2.1s1-2.1,2.1-2.1s2.1,1,2.1,2.1S8.6,19.2,7.5,19.2z M24.5,27.7c-1.2,0-2.1-1-2.1-2.1c0-1.2,1-2.1,2.1-2.1
	c1.2,0,2.1,1,2.1,2.1C26.7,26.8,25.7,27.7,24.5,27.7z"/>
</svg>
